X: 25842
T: Master Of The Box
R: jig
M: 6/8
K: Bminor
FBB FBB|dcB AFE|EAA EAA|dcd edc|
FBB FBB|dcB AFE|EAA EAA|dcB B3|
FBB FBB|dcB AFE|EAA EAA|dcd edc|
FBB FBB|dcB AFE|EAA EAA|dcd ede|
f2f ecB|f2f ecA|d2 dc2 c|dcd ede|
f2f ecB|f2f ecA|d2 dc2 c|dBA B3|
f2f ecB|f2f ecA|d2 dc2 c|dcd ede|
BAB cBc|dcd ede|fa^g fec|fBB B3|

